src/assets/icons/item-flags/featured.svg

<svg width="24" height="24" viewBox="0 0 24 24" fill="none" xmlns="http://www.w3.org/2000/svg">
<path fill-rule="evenodd" clip-rule="evenodd" d="M19.4226 18.5377C17.7537 21.4749 14.0211 22.503 11.085 20.8352C9.64878 20.0189 8.64156 18.6836 8.21804 17.1421L9.49189 17.8662C9.75521 18.0155 10.091 17.9233 10.2402 17.66C10.3905 17.3966 10.2972 17.062 10.0339 16.9117L6.65564 14.9927C5.43556 14.3004 4.94731 12.8323 5.43666 11.5618L11.8728 15.2176C12.1361 15.3679 12.4719 15.2747 12.6211 15.0113C12.7714 14.748 12.6792 14.4134 12.4148 14.2641L5.87334 10.548C4.65436 9.85563 4.16501 8.38758 4.65436 7.11703L14.7156 12.8323C14.9789 12.9815 15.3136 12.8894 15.4639 12.626C15.6131 12.3627 15.521 12.027 15.2576 11.8778L4.87599 5.98144C3.65701 5.28911 3.39808 4.05696 3.73711 2.60208C3.73821 2.5977 3.7404 2.5977 3.7415 2.59879L17.1251 10.2001C20.0622 11.8679 21.0903 15.6005 19.4226 18.5377ZM17.6671 9.24559L4.28355 1.64424C3.64389 1.28107 2.83636 1.63546 2.66849 2.35193C2.28776 3.98236 2.51598 5.49758 3.72728 6.51468C3.04263 8.02003 3.39044 9.76127 4.54139 10.8881C3.66584 12.716 4.32525 14.9312 6.11367 15.9461L6.95083 16.4223C7.2361 18.6606 8.54176 20.652 10.543 21.7887C14.0058 23.756 18.4088 22.5436 20.3761 19.0797C22.3444 15.6159 21.131 11.214 17.6671 9.24559Z" fill="white"/>
<path opacity="0.5" fill-rule="evenodd" clip-rule="evenodd" d="M19.4226 18.5377C17.7537 21.4749 14.0211 22.503 11.085 20.8352C9.64878 20.0189 8.64156 18.6836 8.21804 17.1421L9.49189 17.8662C9.75521 18.0155 10.091 17.9233 10.2402 17.66C10.3905 17.3966 10.2972 17.062 10.0339 16.9117L6.65564 14.9927C5.43556 14.3004 4.94731 12.8323 5.43666 11.5618L11.8728 15.2176C12.1361 15.3679 12.4719 15.2747 12.6211 15.0113C12.7714 14.748 12.6792 14.4134 12.4148 14.2641L5.87334 10.548C4.65436 9.85563 4.16501 8.38758 4.65436 7.11703L14.7156 12.8323C14.9789 12.9815 15.3136 12.8894 15.4639 12.626C15.6131 12.3627 15.521 12.027 15.2576 11.8778L4.87599 5.98144C3.65701 5.28911 3.39808 4.05696 3.73711 2.60208C3.73821 2.5977 3.7404 2.5977 3.7415 2.59879L17.1251 10.2001C20.0622 11.8679 21.0903 15.6005 19.4226 18.5377Z" fill="white"/>
</svg>

<svg width="24" height="24" fill="none" xmlns="http://www.w3.org/2000/svg"><path fill-rule="evenodd" clip-rule="evenodd" d="M19.423 18.538a6.115 6.115 0 01-8.338 2.297 6.087 6.087 0 01-2.867-3.693l1.274.724a.55.55 0 00.542-.954l-3.378-1.92a2.787 2.787 0 01-1.22-3.43l6.437 3.656a.548.548 0 10.542-.954l-6.542-3.716c-1.219-.692-1.708-2.16-1.219-3.431l10.062 5.715a.55.55 0 00.542-.954L4.876 5.98C3.657 5.29 3.398 4.057 3.737 2.602c.001-.004.003-.004.004-.003L17.125 10.2a6.115 6.115 0 012.298 8.338zm-1.756-9.292L4.284 1.644a1.1 1.1 0 00-1.616.708c-.38 1.63-.152 3.146 1.06 4.163a3.872 3.872 0 00.813 4.373c-.875 1.828-.216 4.043 1.573 5.058l.837.476a7.212 7.212 0 0013.425 2.657 7.212 7.212 0 00-2.709-9.833z" fill="#fff"/><path opacity=".5" fill-rule="evenodd" clip-rule="evenodd" d="M19.423 18.538a6.115 6.115 0 01-8.338 2.297 6.087 6.087 0 01-2.867-3.693l1.274.724a.55.55 0 00.542-.954l-3.378-1.92a2.787 2.787 0 01-1.22-3.43l6.437 3.656a.548.548 0 10.542-.954l-6.542-3.716c-1.219-.692-1.708-2.16-1.219-3.431l10.062 5.715a.55.55 0 00.542-.954L4.876 5.98C3.657 5.29 3.398 4.057 3.737 2.602c.001-.004.003-.004.004-.003L17.125 10.2a6.115 6.115 0 012.298 8.338z" fill="#fff"/></svg>
